other/busbahnbim.svg

<svg data-name="Layer 2" version="1.1" viewBox="0 0 48 48" xmlns="http://www.w3.org/2000/svg"><defs><style>.cls-1{fill:none;stroke:#000;stroke-linecap:round;stroke-linejoin:round;}</style></defs><path class="cls-1" d="m7.5 5.5a2 2 0 0 0-2 2v33a2 2 0 0 0 2 2h33a2 2 0 0 0 2-2v-33a2 2 0 0 0-2-2z" stroke="#fff"/><g fill="none" stroke="#fff" stroke-linecap="round" stroke-linejoin="round"><path d="m5.5 17.25h13.375"/><path d="m18.875 17.25c0.36306 1.4932 0.69648 2.9936 1 4.5 0.2003 0.99415 0.38776 1.9921 0.5 3 0.16635 1.4938 0.16635 3.0062 0 4.5"/><path d="m20.375 29.25h-8.4387"/><circle cx="10" cy="28.75" r="2"/><path d="m8.0635 29.25h-2.5635"/><path d="m19.148 19.25h-13.648"/><path d="m17 19.25-1.1248 7"/><path d="m20.375 26.25h-4.5"/><path d="m16.375 22.75h-6.3752"/><path d="m19.115 18.25h3.8853"/><path d="m20.375 29.25h8.6248" style="paint-order:normal"/><path d="m30 28.25a1 1 0 0 1-1 1" style="paint-order:normal"/><path d="m30 28.25c-4e-3 -0.33332-4e-3 -0.66668 0-1 4e-3 -0.33335 0.01188-0.66684 0-1-0.06831-1.9162-0.81524-3.8014-2.0779-5.2444-1.2626-1.443-3.032-2.4336-4.9221-2.7556" style="paint-order:normal"/><path d="m27.689 20.75h-2.6887l-0.75 4.5 5.6528-2e-6" style="paint-order:normal"/><path d="m26.544 19.75h6.0967" style="paint-order:normal"/><path d="m29 29.25h9.5" style="paint-order:normal"/><path d="m32.5 19.75c0.68657 0.06603 1.3631 0.23517 2 0.5 0.34435 0.14319 0.67676 0.314 1 0.5 0.92898 0.53457 1.7874 1.1994 2.5 2 0.80059 0.89953 1.4044 1.9534 2 3 0.18453 0.32428 0.36966 0.6504 0.5 1 0.18039 0.48385 0.25033 1.0261 0.09112 1.5174-0.07961 0.24561-0.21638 0.47428-0.40507 0.65052-0.18869 0.17624-0.43008 0.29832-0.68605 0.33213-0.16548 0.02185-0.33325 0.0073-0.5 0-0.16656-0.0073-0.33344-0.0073-0.5 0" style="paint-order:normal"/><path d="m37.518 22.25h-5.0184l-0.5 3h7.714" style="paint-order:normal"/></g></svg>

<svg xmlns="http://www.w3.org/2000/svg" viewBox="0 0 48 48"><defs><style>.a{fill:none;stroke:#fff;stroke-linecap:round;stroke-linejoin:round;}</style></defs><path class="a" d="M7.5,5.5a2,2,0,0,0-2,2v33a2,2,0,0,0,2,2h33a2,2,0,0,0,2-2V7.5a2,2,0,0,0-2-2Z"/><path class="a" d="M5.5,17.25H18.875"/><path class="a" d="M18.875,17.25q.5446,2.24,1,4.5c.2.9942.3878,1.9921.5,3a20.357,20.357,0,0,1,0,4.5"/><path class="a" d="M20.375,29.25H11.9363"/><circle class="a" cx="10" cy="28.75" r="2"/><path class="a" d="M8.0635,29.25H5.5"/><path class="a" d="M19.148,19.25H5.5"/><path class="a" d="M17,19.25l-1.1248,7"/><path class="a" d="M20.375,26.25h-4.5"/><path class="a" d="M16.375,22.75H10"/><path class="a" d="M19.115,18.25H23"/><path class="a" d="M20.375,29.25H29"/><path class="a" d="M30,28.25a1,1,0,0,1-1,1"/><path class="a" d="M30,28.25q-.006-.5,0-1c.004-.3333.0119-.6668,0-1a8.42,8.42,0,0,0-7-8"/><path class="a" d="M27.689,20.75H25l-.75,4.5h5.6528"/><path class="a" d="M26.544,19.75h6.0967"/><path class="a" d="M29,29.25h9.5"/><path class="a" d="M32.5,19.75a6.9517,6.9517,0,0,1,2,.5,8.7409,8.7409,0,0,1,1,.5,10.0285,10.0285,0,0,1,2.5,2,17.2316,17.2316,0,0,1,2,3,6.98,6.98,0,0,1,.5,1,2.3328,2.3328,0,0,1,.0911,1.5174,1.539,1.539,0,0,1-.405.6505A1.2594,1.2594,0,0,1,39.5,29.25a2.8691,2.8691,0,0,1-.5,0q-.25-.011-.5,0"/><path class="a" d="M37.518,22.25H32.5l-.5,3h7.714"/></svg>
